Planetanaka/Resources/Images/icon_brand.svg

<svg width="160" height="101" viewBox="0 0 160 101" fill="none" xmlns="http://www.w3.org/2000/svg">
<path d="M30.1074 53.0383C31.6746 79.2391 53.4188 100.004 80.0114 100.004C91.8793 100.004 102.768 95.8737 111.338 88.9685C99.1437 85.4914 85.6433 80.6103 71.7512 74.5703C56.4878 67.9425 42.1875 60.5312 30.1074 53.0383Z" fill="#939393"/>
<path d="M33.5681 31.4573C46.04 39.9297 62.3319 48.6796 79.7175 56.2379C93.3321 62.1473 106.93 67.0284 119.043 70.3422C121.067 70.8973 123.059 71.4033 124.969 71.8604C125.491 70.783 125.981 69.6729 126.438 68.5465C128.74 62.8166 129.997 56.548 129.997 50.0019C129.997 48.9898 129.964 47.9777 129.899 46.9656C128.332 20.7648 106.604 0 80.0113 0C68.1597 0 57.255 4.1301 48.6846 11.0354C42.971 15.6389 38.2859 21.4667 35.0373 28.1271C34.5149 29.2208 34.0252 30.3309 33.5681 31.4573Z" fill="#939393"/>
<path d="M134.274 58.9151C133.882 62.5228 133.539 63.1758 132.429 66.6366C137.702 70.3912 142.126 74.0479 145.277 77.2475C146.305 78.2923 147.105 79.1901 147.742 79.9737C147.219 80.0063 146.632 80.0227 145.979 80.0227C139.139 80.0227 129.099 78.3086 117.705 75.1906C105.38 71.8114 91.5364 66.8488 77.7096 60.8414C59.2956 52.8424 42.0406 43.4884 29.1116 34.4937C23.1531 30.3472 18.1742 26.2988 14.6971 22.789C13.6686 21.7442 12.8687 20.8464 12.2321 20.0628C12.7544 20.0302 13.3421 20.0138 13.9951 20.0138C18.7782 20.0138 25.1284 20.8627 32.4091 22.4299C34.2211 19.3119 34.5966 18.463 36.9963 15.7368C28.9483 12.8311 20.8187 10.8068 13.9951 10.0069C6.37156 9.12539 1.39259 11.7373 0.249876 15.3613C-3.21092 26.3967 29.6829 50.8508 73.7264 69.9831C103.29 82.8142 130.356 89.9969 145.995 89.9969C153.667 89.9969 158.597 88.2665 159.74 84.6425C161.732 78.3249 152.182 69.9994 134.274 58.9151Z" fill="#939393"/>
</svg>

<svg id="icon_brand" xmlns="http://www.w3.org/2000/svg" width="160" height="100.004" viewBox="0 0 160 100.004">
  <path id="Trazado_9" data-name="Trazado 9" d="M30.107,53.038a49.992,49.992,0,0,0,81.231,35.93,323.242,323.242,0,0,1-39.587-14.4A328.372,328.372,0,0,1,30.107,53.038Z" fill="#62fb6c"/>
  <path id="Trazado_10" data-name="Trazado 10" d="M33.568,31.457C46.04,39.93,62.332,48.68,79.717,56.238a300.336,300.336,0,0,0,39.326,14.1c2.024.555,4.016,1.061,5.926,1.518.522-1.077,1.012-2.187,1.469-3.314A49.667,49.667,0,0,0,130,50q0-1.518-.1-3.036A50,50,0,0,0,35.037,28.127Q34.254,29.768,33.568,31.457Z" fill="#62fb6c"/>
  <path id="Trazado_11" data-name="Trazado 11" d="M134.274,58.915a28.818,28.818,0,0,1-1.845,7.721,99.61,99.61,0,0,1,12.848,10.611c1.028,1.045,1.828,1.943,2.465,2.726q-.785.049-1.763.049c-6.84,0-16.88-1.714-28.274-4.832a305.888,305.888,0,0,1-40-14.349c-18.414-8-35.669-17.353-48.6-26.348A106.671,106.671,0,0,1,14.7,22.789c-1.028-1.045-1.828-1.943-2.465-2.726q.783-.049,1.763-.049A92.692,92.692,0,0,1,32.409,22.43,31.206,31.206,0,0,1,37,15.737a107.207,107.207,0,0,0-23-5.73C6.372,9.125,1.393,11.737.25,15.361-3.211,26.4,29.683,50.851,73.726,69.983,103.29,82.814,130.356,90,145.995,90c7.672,0,12.6-1.73,13.745-5.354C161.732,78.325,152.182,70,134.274,58.915Z" fill="#e8dd3f"/>
</svg>
